assets/img/braze_icons/passcode.svg

<svg fill="none" height="24" viewBox="0 0 24 24" width="24" xmlns="http://www.w3.org/2000/svg"><path clip-rule="evenodd" d="m5.16146 6h13.67704c.5272-.00002.982-.00003 1.3565.03057.3954.0323.7886.10362 1.167.29641.5645.28762 1.0234.74657 1.311 1.31105.1928.37838.2641.7716.2964 1.16695.0306.37456.0306.82932.0306 1.35642v3.6772c0 .5271 0 .9819-.0306 1.3564-.0323.3954-.1036.7886-.2964 1.167-.2876.5645-.7465 1.0234-1.311 1.311-.3784.1928-.7716.2641-1.167.2964-.3745.0306-.8293.0306-1.3565.0306h-13.67705c-.52714 0-.9819 0-1.35647-.0306-.39535-.0323-.78857-.1036-1.16695-.2964-.56448-.2876-1.02343-.7465-1.31105-1.311-.19279-.3784-.26411-.7716-.29641-1.167-.030599-.3745-.030585-.8293-.03057-1.3564v-3.6772c-.000015-.5271-.000029-.98187.03057-1.35642.0323-.39535.10362-.78857.29641-1.16695.28762-.56448.74657-1.02343 1.31105-1.31105.37838-.19279.7716-.26411 1.16695-.29641.37455-.0306.82936-.03059 1.35648-.03057zm1.83854 4.75c-.69035 0-1.25.5596-1.25 1.25s.55965 1.25 1.25 1.25c.69036 0 1.25-.5596 1.25-1.25s-.55964-1.25-1.25-1.25zm3.75 1.25c0-.6904.5596-1.25 1.25-1.25s1.25.5596 1.25 1.25-.5596 1.25-1.25 1.25-1.25-.5596-1.25-1.25zm5 0c0-.6904.5596-1.25 1.25-1.25s1.25.5596 1.25 1.25-.5596 1.25-1.25 1.25-1.25-.5596-1.25-1.25z" fill="#801ed7" fill-rule="evenodd"/></svg>

<svg width="24" height="24" viewBox="0 0 24 24" fill="none" xmlns="http://www.w3.org/2000/svg">
<path fill-rule="evenodd" clip-rule="evenodd" d="M5.16146 6H18.8385C19.3657 5.99998 19.8205 5.99997 20.195 6.03057C20.5904 6.06287 20.9836 6.13419 21.362 6.32698C21.9265 6.6146 22.3854 7.07355 22.673 7.63803C22.8658 8.01641 22.9371 8.40963 22.9694 8.80498C23 9.17954 23 9.6343 23 10.1614V13.8386C23 14.3657 23 14.8205 22.9694 15.195C22.9371 15.5904 22.8658 15.9836 22.673 16.362C22.3854 16.9265 21.9265 17.3854 21.362 17.673C20.9836 17.8658 20.5904 17.9371 20.195 17.9694C19.8205 18 19.3657 18 18.8385 18H5.16145C4.63431 18 4.17955 18 3.80498 17.9694C3.40963 17.9371 3.01641 17.8658 2.63803 17.673C2.07355 17.3854 1.6146 16.9265 1.32698 16.362C1.13419 15.9836 1.06287 15.5904 1.03057 15.195C0.999971 14.8205 0.999985 14.3657 1 13.8386V10.1614C0.999985 9.6343 0.999971 9.17953 1.03057 8.80498C1.06287 8.40963 1.13419 8.01641 1.32698 7.63803C1.6146 7.07355 2.07355 6.6146 2.63803 6.32698C3.01641 6.13419 3.40963 6.06287 3.80498 6.03057C4.17953 5.99997 4.63434 5.99998 5.16146 6ZM7 10.75C6.30965 10.75 5.75 11.3096 5.75 12C5.75 12.6904 6.30965 13.25 7 13.25C7.69036 13.25 8.25 12.6904 8.25 12C8.25 11.3096 7.69036 10.75 7 10.75ZM10.75 12C10.75 11.3096 11.3096 10.75 12 10.75C12.6904 10.75 13.25 11.3096 13.25 12C13.25 12.6904 12.6904 13.25 12 13.25C11.3096 13.25 10.75 12.6904 10.75 12ZM15.75 12C15.75 11.3096 16.3096 10.75 17 10.75C17.6904 10.75 18.25 11.3096 18.25 12C18.25 12.6904 17.6904 13.25 17 13.25C16.3096 13.25 15.75 12.6904 15.75 12Z" fill="#801ED7"/>
</svg>
